X: 14261
T: G'schnitzt
R: reel
M: 4/4
K: Dmajor
dAFA G2GF|GEB,D C2AG|FDDC B,BBA|(3Bcd ed cdec|
dAFA GFGA|GEB,D CEAG|FDDC B,BAG|1 FGEF D4:|2 FGEF D2 FA||
|:GEE^D E3F|GEEF GAEG|FAdc dfed|cdBc A3c|
dAFA G2GF|GEB,D CEAG|FDDC B,BAG|1 FGEF D2 FA:|2 FGEF D4||

